X: 37899
T: South Uist Golf Club
R: strathspey
M: 4/4
K: Gmajor
|:B|G>G G<A B2 B>A|B2 g>e d<B B>A|G>A A<B d>B (3B^cd|e>f d>e A>A a:|
|:f|g>g g<a f>f f<a|e>A e>f d>B (3B^cd|e>f d>e ^c>A B<G|g>e d<e A>A A:|

